X:4162
T:Merrily Kissed The Quaker's Wife
O:england
M:6/8
L:1/8
K:G
D|GAB D2B|c2AB2G|GAB DEG|A3 AGE|GAB D2B|c2AB2G|GAB D2E|G3G2:|:c|BGG AGG|
BGG AGG|GAB DEG|ABAA2c|BGG AGG|BGG AGG|GAB D2E|G3G2:|:d|gfg aga|bge def|
gag gab|aba agf|gab efg|def Bcd|GABD2E|G3G2:|
